X: 4828
T:Tomin Adea
M:4/4
L:1/8
S:Castle Ceili Band
R:Reel
K:G
BGAG EGDG|EAAG A2 GA|BGAG EGDG|EG G2 EG G2:|
|:G2 Bd edBG|GbdB A2 A2|1G Bd edBG|dBAc BG G2:|
2G2 Bd efga|bgaf gfed:|
